X: 3
T: The Bear Dance
R: polka
M: 2/4
L: 1/8
K: Dmaj
|: BE EB/A/ | BE EG/A/ | BB AG | A2- AG/A/ |
BB A/G/F | GG F/E/D | EG F/E/D | E2- E2 :|
|: E/F/G E/F/G | FD D2 | E/F/G E/F/G | A2- AG/A/ |
BB A/G/F | GG F/E/D | EG F/E/D | E2- E2 :|


Tune 4195	Setting 25388

